packages/katcn/src/icons/svg/confirm-solid.svg

<svg width="24" height="24" viewBox="0 0 24 24" fill="none" xmlns="http://www.w3.org/2000/svg">
<path d="M21.6301 1.20194C21.2355 0.906039 20.6437 0.906039 20.2491 1.39921L17.3884 4.95002C15.8101 3.86505 13.9359 3.27325 11.8644 3.27325C6.43896 3.27325 2 7.71177 2 13.1366C2 18.5615 6.43896 23 11.8644 23C17.2898 23 21.7287 18.5615 21.7287 13.1366C21.7287 11.1639 21.1369 9.38854 20.1504 7.8104L19.4599 8.59947L18.7694 9.38854L13.0481 16.5888C12.8508 16.7861 12.5549 16.9833 12.2589 16.9833C11.963 16.9833 11.7657 16.8847 11.5684 16.6874L7.32676 12.1503C7.03083 11.8544 7.03083 11.3612 7.12947 11.0653C7.12947 10.9667 7.22811 10.868 7.32676 10.7694C7.72133 10.3749 8.31319 10.3749 8.70777 10.7694L12.1603 14.5175L17.5857 7.71177L18.1776 6.9227L18.7694 6.13363L21.6301 2.58281C22.1233 2.18828 22.1233 1.59648 21.6301 1.20194Z" fill="black"/>
</svg>

<svg xmlns="http://www.w3.org/2000/svg" fill="none" viewBox="0 0 24 24"><path fill="#000" d="M21.63 1.202c-.395-.296-.986-.296-1.38.197L17.387 4.95c-1.578-1.085-3.452-1.677-5.524-1.677C6.44 3.273 2 7.712 2 13.137 2 18.56 6.439 23 11.864 23s9.865-4.439 9.865-9.863c0-1.973-.592-3.748-1.579-5.327l-.69.79-.69.789-5.722 7.2c-.197.197-.493.394-.79.394-.295 0-.492-.098-.69-.296L7.327 12.15c-.296-.296-.296-.789-.198-1.085 0-.098.1-.197.198-.296a.954.954 0 0 1 1.38 0l3.453 3.749 5.426-6.806.592-.79.591-.788 2.861-3.551c.493-.395.493-.987 0-1.381"/></svg>
